X:97
T: WILLST DU MICH DENN NICHT MEHR LIEBEN
N: E0699B
O: Europa, Mitteleuropa, Deutschland, Hessen, Dill - Kreis
R: Liebes - Lied, Leid, Klage
M: 3/4
L: 1/8
K: F
CE | G2B2AG | FAc2
AF | G2B2BG | d2c2
cc | cff2cB | Acc2
cA | G2dcBG | F4

